!!!COM: Palestrina, Giovanni Perluigi da
!!!OPR: Missa Te Deum laudamus
!!!OTL: Benedictus
**kern	**kern	**kern	**kern
*Itenor	*Icalto	*Icalto	*Icant
!Tenor	!Altus 2	!Altus 1	!Cantus
*clefGv2	*clefG2	*clefG2	*clefG2
*k[]	*k[]	*k[]	*k[]
*A:aeo	*A:aeo	*A:aeo	*A:aeo
*M4/2	*M4/2	*M4/2	*M4/2
=1	=1	=1	=1
0r	0r	0r	1e
.	.	.	1g
=2	=2	=2	=2
0r	1A	0r	1a
.	1c	.	2g
.	.	.	[2a
=3	=3	=3	=3
0r	1d	0r	2a]
.	.	.	2b
.	2c	.	2cc
.	[2d	.	4b
.	.	.	4a
=4	=4	=4	=4
0r	2d]	0r	1b
.	2e	.	.
.	2f	.	2a
.	4e	.	[2cc
.	4d	.	.
=5	=5	=5	=5
1E	1e	0r	2cc]
.	.	.	4b
.	.	.	4a
1G	2d	.	4b
.	.	.	4a
.	2e	.	4g
.	.	.	4f
=6	=6	=6	=6
1A	2.c	0r	0e
.	4A	.	.
2G	2B	.	.
[2A	[2e	.	.
=7	=7	=7	=7
2A]	2e]	1r	1f
2B	2d	.	.
[1c	[1e	1A	2e
.	.	.	2a
=8	=8	=8	=8
2c]	1e]	1c	2g
4B	.	.	1a
4A	.	.	.
1B	2r	1d	.
.	2d	.	2g#
=9	=9	=9	=9
4A	2e	2c	[0a
4G	.	.	.
4F	1f	1d	.
4E	.	.	.
2D	.	.	.
2C#	2e	2e	.
=10	=10	=10	=10
2D	2d	2f	1a]
2.A	4c	4e	.
.	4B	4d	.
.	1c	1e	1r
4B	.	.	.
[2c	.	.	.
=11	=11	=11	=11
2c]	1G	2d	0r
2B	.	2d	.
[1A	2r	2f	.
.	2A	[2e	.
=12	=12	=12	=12
1A]	1c	2e]	1e
.	.	4d	.
.	.	4c	.
1G	1d	4B	1g
.	.	4A	.
.	.	2B	.
=13	=13	=13	=13
0r	2c	2A	1a
.	1d	2d	.
.	.	2B	2g
.	2e	2c	[2a
=14	=14	=14	=14
0r	2f	1d	2a]
.	4e	.	2b
.	4d	.	.
.	2e	1A	2cc
.	[2a	.	4b
.	.	.	4a
=15	=15	=15	=15
0r	2a]	1e	1b
.	2g	.	.
.	2f	2.A	2a
.	4e	.	[2cc
.	4d	4B	.
=16	=16	=16	=16
1r	4e	4c	2cc]
.	4f	4d	.
.	2.g	4e	4b
.	.	4f	4a
1E	.	[1g	2b
.	4f	.	.
.	2e	.	[2cc
=17	=17	=17	=17
1G	1d	1g]	2cc]
.	.	.	2b
1A	1c	1e	2cc
.	.	.	2a
=18	=18	=18	=18
2G	2r	1e	2b
1A	2e	.	1cc
.	2f	1r	.
2B	2d	.	4b
.	.	.	4a
=19	=19	=19	=19
2c	2e	0r	2g
4B-	2f	.	2a
4A	.	.	.
1B-	4g	.	2d
.	4f	.	.
.	4e	.	[2dd
.	4d	.	.
=20	=20	=20	=20
1A	1e	1r	2dd]
.	.	.	2cc#
2r	1d	1f	1dd
2d	.	.	.
=21	=21	=21	=21
2.c	1r	2.e	0r
4B	.	4d	.
2c	1a	2e	.
2d	.	2f	.
=22	=22	=22	=22
2B	2.g	2d	0r
2.c	.	2.e	.
.	4f	.	.
.	2g	.	.
4B	.	4d	.
4A	2a	4c	.
4G	.	4B	.
=23	=23	=23	=23
2A	2f	2c	0r
2B	2.g	2d	.
1c	.	2.e	.
.	4f	.	.
.	4e	.	.
.	4d	4f	.
=24	=24	=24	=24
2c	2e	2g	1r
2d	1a	2f	.
2.B	.	1d	1dd
.	2g#	.	.
4B	.	.	.
=25	=25	=25	=25
1A	1a	1e	2.cc
.	.	.	4b
1r	2r	1a	2cc
.	2d	.	2dd
=26	=26	=26	=26
0r	2.e	2.g	2b
.	.	.	2.cc
.	4d	4f	.
.	2e	2g	.
.	.	.	4b
.	2f	2a	4a
.	.	.	4g
=27	=27	=27	=27
0r	2d	2f	2a
.	2.e	2.g	2cc
.	.	.	2b
.	4d	4f	.
.	4c	4e	[2cc
.	4B	4d	.
=28	=28	=28	=28
0r	2.A	2e	4cc]
.	.	.	4b
.	.	2.f	4a
.	4B	.	4g
.	1c	.	4a
.	.	4e	4g
.	.	[2e	4g
.	.	.	8f
.	.	.	8e
=29	=29	=29	=29
2r	1d	2e]	1f
2d	.	2d	.
2.c	1A	2e	1e
.	.	2A	.
4B	.	.	.
=30	=30	=30	=30
2c	0r	2e	1a
2d	.	2f	.
2B	.	2d	2.g
[2c	.	[2e	.
.	.	.	4f
=31	=31	=31	=31
4c]	0r	4e]	2g
4B	.	4d	.
4A	.	4c	2a
4G	.	4B	.
2A	.	4c	2f
.	.	4d	.
2G	.	[2e	[2g
=32	=32	=32	=32
2B-	0r	4e]	4g]
.	.	4d	4f
2B-	.	1d	4f
.	.	.	8e
.	.	.	8d
1A	.	.	1e
.	.	2c#	.
=33	=33	=33	=33
2D	1f	2d	1d
2D	.	2d	.
1A	2.e	2.c	1r
.	4d	4B	.
=34	=34	=34	=34
2r	2e	2c	1a
2D	2f	2d	.
2G	2d	2B	2.g
2C	2e	[2c	.
.	.	.	4f
=35	=35	=35	=35
2E	1c	4c]	2g
.	.	4B	.
2F	.	4A	2a
.	.	4G	.
2D	2d	2A	2f
[2E	2B	2G	[2g
=36	=36	=36	=36
2E]	2B	1.g	4g]
.	.	.	4f
2.C	2.c	.	4e
.	.	.	4d
.	.	.	1e
4D	4B	.	.
4E	4G	2g	.
4F	4A	.	.
=37	=37	=37	=37
4G	4B	2g	4d
4F	4c	.	4e
4D	4d	1f	4f
4E	4c	.	4g
4F	2.A	.	4a
4G	.	.	4b
[2A	.	4e	[2cc
.	4B	4d	.
=38	=38	=38	=38
2A]	2c	2e	4cc]
.	.	.	4b
2D	2d	2f	1a
2E	1B	2.e	.
2E	.	.	2g#
.	.	4d	.
=39	=39	=39	=39
2.F	2r	2c	[0a
.	2d	2f	.
4G	.	.	.
[1A	2c	2.e	.
.	2B	.	.
.	.	4d	.
=40	=40	=40	=40
2A]	2c	2e	1a_
1D	1d	1f	.
.	.	.	1a_
2D	2d	2f	.
=41	=41	=41	=41
0A	0c#	0e	0a]
==	==	==	==
*-	*-	*-	*-
!!!CDT: 1525/^1526/-1594/2/2
!!!OCY: Italia
!!!AGN: Mass (Paraphrase)
!!!AST: renaissance, vocal
!!!ASW: Hymn
!!!PWK: Masses, Book 9
!!!RNB: Cadence finals: G,E,D
!!!YOR: Le Opere Complete, v. 25, p. 172
!!!YOO: Rome, Italy: Fratelli Scalera
!!!END: 1992//
!!!EED: John Miller
!!!YEC: Copyright 2000, John Miller
!!!YEN: United States of America
!!!YEM: Rights to all derivative electronic formats reserved.
!!!YEM: Refer to licensing agreement for further details.
!!!YEM: This file must be accompanied by the licensing agreement.
!!!YEM: A copy of the licensing agreement may be found at http://www.music-cog.ohio-state.edu/HumdrumDatabases/Palestrina/license.txt
!!!EMD: converted to Humdrum by Bret Aarden
